!! 00000] TT[WS
!!!OTL: San guo diao
!!!ARE: Asia, China,ˇShanxi Dingxiang
!! Ethnic Group: Han
!! WI, 249
!!!SCT: J0294
!!!YEM: Copyright 1995, estate of Helmut Schaffrath.
**kern
*ICvox
*Ivox
*M2/4
*k[b-]
*F:
{8a
8cc
8dd
8ff
=1
4.cc
8ff
=2
8dd
8cc
16a
16cc
8d
=3
2f}
=4
{8d
8f
8r
16g
16g
=5
8a
8dd
8cc
8a
=6
8g
16a
16cc
8a
8g
=7
2f}
=8
{8a
8dd
8cc
8a
=9
8a
8cc
8a
8d
=10
16g
16g
16f
16g
8cc
8e
=11
8d
16c
16d
8.e
16d
=12
2c}
==
!!!AGN: Xiaodiao. XÅshi
!!!ONB: ESAC (Essen Associative Code) Database: CHINA
!!!AMT: simple duple
!!!AIN: vox
!!!EED: Helmut Schaffrath
!!!EEV: 1.0
*-
